icons/svg/scale-balance.svg

﻿<?xml version="1.0" encoding="utf-8"?>
<!DOCTYPE svg PUBLIC "-//W3C//DTD SVG 1.1//EN" "http://www.w3.org/Graphics/SVG/1.1/DTD/svg11.dtd">
<svg xmlns="http://www.w3.org/2000/svg" xmlns:xlink="http://www.w3.org/1999/xlink" version="1.1" baseProfile="full" width="24" height="24" viewBox="0 0 24.00 24.00" enable-background="new 0 0 24.00 24.00" xml:space="preserve">
	<path fill="#000000" fill-opacity="1" stroke-width="1.33333" stroke-linejoin="miter" d="M 12,3C 10.7302,3.0018 9.59905,3.8028 9.17578,5L 3,5L 3,7L 4.94531,7L 2,14C 1.52812,16 3,17 5.5,17C 8,17 9.5599,16 9,14L 6.05469,7L 9.17383,7C 9.47597,7.853 10.147,8.524 11,8.8262L 11,20L 2,20L 2,22L 22,22L 22,20L 13,20L 13,8.8242C 13.8518,8.522 14.522,7.8518 14.8242,7L 17.9453,7L 15,14C 14.5281,16 16,17 18.5,17C 21,17 22.5599,16 22,14L 19.0547,7L 21,7L 21,5L 14.8262,5C 14.4027,3.8021 13.2705,3.001 12,3 Z M 12,5C 12.5523,5 13,5.4477 13,6C 13,6.5523 12.5523,7 12,7C 11.4477,7 11,6.5523 11,6C 11,5.4477 11.4477,5 12,5 Z M 5.5,10.25L 7,14L 4,14L 5.5,10.25 Z M 18.5,10.25L 20,14L 17,14L 18.5,10.25 Z "/>
</svg>

<svg xmlns="http://www.w3.org/2000/svg" version="1.1" baseProfile="full" width="24" height="24" viewBox="0 0 24.00 24.00" xml:space="preserve"><path fill="#000" fill-opacity="1" stroke-width="1.333" stroke-linejoin="miter" d="M12 3c-1.27.002-2.4.803-2.824 2H3v2h1.945L2 14c-.472 2 1 3 3.5 3s4.06-1 3.5-3L6.055 7h3.12c.3.853.972 1.524 1.825 1.826V20H2v2h20v-2h-9V8.824c.852-.302 1.522-.972 1.824-1.824h3.12L15 14c-.472 2 1 3 3.5 3s4.06-1 3.5-3l-2.945-7H21V5h-6.174C14.403 3.802 13.27 3 12 3zm0 2c.552 0 1 .448 1 1s-.448 1-1 1-1-.448-1-1 .448-1 1-1zm-6.5 5.25L7 14H4l1.5-3.75zm13 0L20 14h-3l1.5-3.75z"/></svg>
